X:532181 F:http://www.vwml.org/record/HAM/5/32/18%%VWML:HAM-5-32-18-0 T:Nelly, the Milkmaid.
S:Mrs Marina Russell, Upwey coll. HED Hammond
O:England
A:Dorset
N:Transcribed from HAM-05-050.gif
F:HAM-05-32-18.abc
Z:EFDSS;PJHeadford
M:C
L:1/8
Q:2/4=60
K:F
G G D D B2B2|A2F Ac2zc|c B A GG2F E|D D E F G2Bc|
d2((3(dc) B)c2B c|d2((3(dc) B)c2A2|\
B> c "_Sixth flattened"_e d c B A|G2D D F4|
"^Chorus"G G D D B2z2|A A F A c2z2|d2 G A B A G F|D2E F HG4|| W:[left of title:] 516, [below title:] D786
W:[and then, on the right:] Mrs. Russell, Upwey
% downloaded from http://folkopedia.efdss.org/HAM-05-32-19.abc
